X: 42956
T: Willie Clancy's
R: reel
M: 4/4
K: Adorian
|EGAB c2dc|BGGG BGAG|EGAB c2eg|gedg eAAG|
EGAB c2dc|BGGG BGAG|EGAB c2eg|gedg eAAA||
a2ea aged|^cdef g2ag|eaab agef|gedg eAAA|
eaab aged|^cdef g2ag|eaag egde|gedg eAAG||

